packages/foundations/assets/icons/functional/images/transportation/electric_scooter_14_inverted.svg

<svg width="14" height="14" viewBox="0 0 14 14" fill="none" xmlns="http://www.w3.org/2000/svg">
<g clip-path="url(#clip0_2214_6804)">
<path fill-rule="evenodd" clip-rule="evenodd" d="M10.0763 1.62393L9.15055 1.93099C8.70495 2.06465 8.42743 2.50007 8.48423 2.95288L9.49024 7.60641C8.86493 7.87394 8.36873 8.24463 8.01145 8.721C7.69045 9.149 7.45597 9.653 7.30607 10.2293L4.29714 10.2302C4.04986 9.75183 3.55063 9.42492 2.97495 9.42492C2.15359 9.42492 1.48745 10.0909 1.48745 10.9124C1.48745 11.734 2.15359 12.3999 2.97495 12.3999C3.61821 12.3999 4.16602 11.9918 4.37354 11.4202C6.683 11.4202 7.83773 11.4178 7.83773 11.4178C7.93567 11.4178 8.30417 11.3073 8.37431 10.923C8.47598 10.3148 8.67371 9.82132 8.96345 9.435C9.15299 9.18228 9.41562 8.96827 9.75697 8.7944L9.99232 9.8418C9.7119 10.1123 9.53745 10.492 9.53745 10.9124C9.53745 11.734 10.2036 12.3999 11.025 12.3999C11.8466 12.3999 12.5125 11.734 12.5125 10.9124C12.5125 10.1623 11.9468 9.48848 11.1202 9.42757C11.1202 9.43252 10.6507 7.29162 9.71176 3.00485L10.4182 2.76376C10.7199 2.67252 10.9199 2.32099 10.8172 2.0229C10.7144 1.7248 10.4182 1.52987 10.0763 1.62393ZM5.22549 8.12179C4.4547 7.37762 3.63512 7.13836 2.64047 7.25919C2.31426 7.29882 2.08194 7.59539 2.12156 7.9216C2.16119 8.24781 2.45776 8.48013 2.78397 8.44051C3.43836 8.36101 3.8994 8.4956 4.39895 8.9779C4.63536 9.20615 5.01204 9.19953 5.24028 8.96312C5.46852 8.72671 5.4619 8.35003 5.22549 8.12179Z" fill="#1A1C1F"/>
</g>
<defs>
<clipPath id="clip0_2214_6804">
<rect width="14" height="14" fill="white"/>
</clipPath>
</defs>
</svg>

<svg xmlns="http://www.w3.org/2000/svg" width="14" height="14" fill="none"><g clip-path="url(#a)"><path fill="#1A1C1F" fill-rule="evenodd" d="m10.076 1.624-.925.307a.945.945 0 0 0-.667 1.022L9.49 7.606c-.625.268-1.121.639-1.479 1.115a4.3 4.3 0 0 0-.705 1.508l-3.009.001a1.487 1.487 0 1 0 .077 1.19q3.464-.001 3.464-.002c.098 0 .466-.11.536-.495q.154-.91.59-1.488.282-.38.793-.64l.235 1.047a1.488 1.488 0 1 0 1.128-.414q0 .008-1.408-6.423l.706-.241c.302-.091.502-.443.4-.741a.6.6 0 0 0-.742-.4m-4.85 6.498c-.771-.744-1.59-.984-2.586-.863a.595.595 0 0 0 .144 1.182c.654-.08 1.115.055 1.615.537a.595.595 0 1 0 .826-.856" clip-rule="evenodd"/></g><defs><clipPath id="a"><path fill="#fff" d="M0 0h14v14H0z"/></clipPath></defs></svg>
